X:102
T:Harper's Frolic
R:Polka
M:4/4
L:1/4
K:D
A>G|:FA DA/2G/2|FA Dd|cd ec|d/2c/2d/2e/2 fA/2G/2|
|FA DA/2G/2|FA Dd|cd ec|1 d2 A3/2G/2:|2 d Ade|
|:f2df |g2eg|f2 df|ecA2|
|f2df|g2eg|fdec|1 d2 d d/e/:|2 d2 A>G:|
